assets/icons/speaker/_.svg

<?xml version="1.0" encoding="UTF-8" standalone="no"?>
<svg viewBox="0 0 24 24" height="24" width="24" version="1.1" id="svg10" sodipodi:docname="_.svg" inkscape:version="1.1 (ce6663b3b7, 2021-05-25)"
   xmlns:inkscape="http://www.inkscape.org/namespaces/inkscape"
   xmlns:sodipodi="http://sodipodi.sourceforge.net/DTD/sodipodi-0.dtd"
   xmlns="http://www.w3.org/2000/svg"
   xmlns:svg="http://www.w3.org/2000/svg">
   <defs id="defs14" />
   <sodipodi:namedview id="namedview12" pagecolor="#ffffff" bordercolor="#666666" borderopacity="1.0" inkscape:pageshadow="2" inkscape:pageopacity="0.0" inkscape:pagecheckerboard="0" showgrid="true" inkscape:snap-page="true" inkscape:zoom="28" inkscape:cx="24.732143" inkscape:cy="10.660714" inkscape:window-width="1920" inkscape:window-height="1016" inkscape:window-x="0" inkscape:window-y="27" inkscape:window-maximized="1" inkscape:current-layer="svg10" inkscape:snap-grids="true">
      <inkscape:grid type="xygrid" id="grid912" />
      <inkscape:grid type="xygrid" id="grid822" dotted="true" spacingx="0.5" spacingy="0.5" empspacing="10" />
   </sodipodi:namedview>
   <path style="color:#000000;fill:#808080;-inkscape-stroke:none" d="m 12,3.2929688 -4.7070313,4.7070312 h -3.0722656 l -0.1464844,0.2382813 c -1.4056249,2.2899907 -1.4137264,5.2106197 0,7.5234377 l 0.1445313,0.238281 h 3.0742187 l 4.7070313,4.707031 z m -1,2.4140624 v 12.5859378 l -3.2929688,-3.292969 h -2.8476562 c -1.0444082,-1.879388 -1.0373001,-4.14037 0,-6 h 2.8476562 z" id="path857" />
   <path style="color:#000000;fill:#808080;stroke-linecap:square;-inkscape-stroke:none" d="m 14.5,7.7929687 -0.707031,0.7070313 0.353515,0.3535156 c 1.823222,1.8232214 1.823222,4.4697474 0,6.2929684 l -0.353515,0.353516 0.707031,0.707031 0.353516,-0.353515 c 2.176774,-2.176775 2.176774,-5.530257 0,-7.7070316 z" id="path1025" />
   <path style="color:#000000;fill:#808080;-inkscape-stroke:none" d="m 17.853516,5.1464844 -0.707032,0.7070312 c 1.926341,1.9263411 2.853516,4.0446347 2.853516,6.1464844 0,2.10185 -0.927175,4.220143 -2.853516,6.146484 l 0.707032,0.707032 c 2.073655,-2.073655 3.146484,-4.45537 3.146484,-6.853516 0,-2.3981457 -1.072829,-4.7798607 -3.146484,-6.8535156 z" id="path1481" />
</svg>

<svg height="24" width="24" xmlns="http://www.w3.org/2000/svg"><path style="color:#000;fill:gray;-inkscape-stroke:none" d="M12 3.293 7.293 8H4.221l-.147.238a7.22 7.22 0 0 0 0 7.524L4.22 16h3.074L12 20.707zm-1 2.414v12.586L7.707 15H4.859a6.155 6.155 0 0 1 0-6h2.848z"/><path style="color:#000;fill:gray;stroke-linecap:square;-inkscape-stroke:none" d="m14.5 7.793-.707.707.353.354c1.824 1.823 1.824 4.47 0 6.292l-.353.354.707.707.354-.353c2.176-2.177 2.176-5.53 0-7.708z"/><path style="color:#000;fill:gray;-inkscape-stroke:none" d="m17.854 5.146-.708.708C19.073 7.78 20 9.898 20 12c0 2.102-.927 4.22-2.854 6.146l.708.708C19.927 16.78 21 14.398 21 12c0-2.398-1.073-4.78-3.146-6.854z"/></svg>
